public/primaries/Hand.svg

<svg id="Layer_1" data-name="Layer 1" xmlns="http://www.w3.org/2000/svg" width="64" height="64" viewBox="0 0 64 64">
  <defs>
    <style>
      .cls-1 {
        fill-rule: evenodd;
      }
    </style>
  </defs>
  <title>Icons 400</title>
  <path class="cls-1" d="M50.9952,29.0156a3.5129,3.5129,0,0,1,2.8579,1.1563.7066.7066,0,0,1,0,.8254c-1.0123,1.4262-5.0869,6.64-6.8964,12.3073-2.9519,9.2445-9.1611,12.711-16.9589,12.711A13.999,13.999,0,0,1,16,42.0156v-22a2,2,0,1,1,3.9994,0V32.0165a1,1,0,0,0,1,.9991h0a.9994.9994,0,0,0,1-.9991V13.5156a2.5,2.5,0,1,1,4.9993,0V31.0165a.9994.9994,0,0,0,1,.9991h0a.9994.9994,0,0,0,1-.9991V10.5156a2.5,2.5,0,1,1,4.9993,0V31.0165a.9994.9994,0,0,0,1,.9991h0a.9994.9994,0,0,0,1-.9991V13.5156a2.5,2.5,0,1,1,4.9993,0V37.5693a.6589.6589,0,0,0,1.2248.34C44.6017,33.9017,47.897,29.0156,50.9952,29.0156Z"/>
</svg>

<svg id="Layer_1" data-name="Layer 1" xmlns="http://www.w3.org/2000/svg" width="64" height="64" viewBox="0 0 64 64"><defs><style>.cls-1{fill-rule:evenodd}</style></defs><title>Icons 400</title><path class="cls-1" d="M50.995 29.016a3.513 3.513 0 0 1 2.858 1.156.707.707 0 0 1 0 .825c-1.012 1.426-5.087 6.64-6.896 12.308-2.952 9.244-9.161 12.71-16.96 12.71a13.999 13.999 0 0 1-13.997-14v-22a2 2 0 1 1 4 0v12.002a1 1 0 0 0 1 .999 1 1 0 0 0 1-1v-18.5a2.5 2.5 0 1 1 4.999 0v17.5a1 1 0 0 0 1 1 1 1 0 0 0 1-1v-20.5a2.5 2.5 0 1 1 4.999 0v20.5a1 1 0 0 0 1 1 1 1 0 0 0 1-1v-17.5a2.5 2.5 0 1 1 5 0v24.053a.659.659 0 0 0 1.224.34c2.38-4.007 5.675-8.893 8.773-8.893z"/></svg>
